$$  ; View Grbl settings
?   ; Current status
G90 ; Absolute distance mode
G21 (All units in mm)

(Start cutting path id: path3364)
(Change tool to Default tool)

G00 Z5.000000
G00 X50.000002 Y16.807789

G01 Z-0.125000 F100.0(Penetrate)
G01 X50.000002 Y56.807777 Z-0.125000 F400.000000
G00 Z5.000000

(End cutting path id: path3364)


(Start cutting path id: path3362)
(Change tool to Default tool)

G00 Z5.000000
G00 X90.000004 Y56.807777

G01 Z-0.125000 F100.0(Penetrate)
G01 X50.000002 Y56.807777 Z-0.125000 F400.000000
G00 Z5.000000

(End cutting path id: path3362)


(Start cutting path id: path3360)
(Change tool to Default tool)

G00 Z5.000000
G00 X50.000002 Y96.807779

G01 Z-0.125000 F100.0(Penetrate)
G01 X50.000002 Y56.807777 Z-0.125000 F400.000000
G00 Z5.000000

(End cutting path id: path3360)


(Start cutting path id: path3355)
(Change tool to Default tool)

G00 Z5.000000
G00 X10.000000 Y56.807777

G01 Z-0.125000 F100.0(Penetrate)
G01 X50.000002 Y56.807777 Z-0.125000 F400.000000
G00 Z5.000000

(End cutting path id: path3355)

G28  ; Park

