$I  ; View build info
$G  ; View G-code parser state
$$  ; View Grbl settings
?  ; View current status

G90  ; Set absolute distance mode
G21  ; Set all units in millimeters

G00 Z5.000000
G00 X50.000002 Y16.807789

G01 Z-0.125000 F1000.0  ; Penetrate
G01 X50.000002 Y56.807777 Z-0.125000 F4000.000000
G00 Z5.000000

G00 Z5.000000
G00 X90.000004 Y56.807777

G01 Z-0.125000 F1000.0  ; Penetrate
G01 X50.000002 Y56.807777 Z-0.125000 F4000.000000
G00 Z5.000000

G00 Z5.000000
G00 X50.000002 Y96.807779

G01 Z-0.125000 F1000.0  ; Penetrate
G01 X50.000002 Y56.807777 Z-0.125000 F4000.000000
G00 Z5.000000

G00 Z5.000000
G00 X10.000000 Y56.807777

G01 Z-0.125000 F1000.0  ; Penetrate
G01 X50.000002 Y56.807777 Z-0.125000 F4000.000000
G00 Z5.000000

G28  ; Go to home position
M2  ; Program end
