$I   ; View build info
$$   ; View Grbl settings
?    ; View current status
$G   ; View G-code parser state
G91  ; Set absolute distance mode
G21  ; Set all units in millimeters

G0 Y170
G0 X350
G0 Y-170
G0 X-350

G0 Y170
G0 X350
G0 Y-170
G0 X-350

G0 Y170
G0 X350
G0 Y-170
G0 X-350

G0 Y170
G0 X350
G0 Y-170
G0 X-350

G0 Y170
G0 X350
G0 Y-170
G0 X-350

G0 Y170
G0 X350
G0 Y-170
G0 X-350

G0 Y170
G0 X350
G0 Y-170
G0 X-350

G0 Y170
G0 X350
G0 Y-170
G0 X-350

G0 Y170
G0 X350
G0 Y-170
G0 X-350

G0 Y170
G0 X350
G0 Y-170
G0 X-350

G28  ; Go to home position
