$$   ; View Grbl settings
?    ; Current status
G90  ; Absolute distance mode
G21  ; All units in mm

(Start cutting path id: path3367)
(Change tool to Default tool)

G00 Z5.000000
G00 X89.858890 Y96.666667

G01 Z-0.125000 F1000.0(Penetrate)
G01 X89.858890 Y56.666668 Z-0.125000 F4000.000000
G00 Z5.000000

(End cutting path id: path3367)


(Start cutting path id: path3365)
(Change tool to Default tool)

G00 Z5.000000
G00 X79.858890 Y96.666667

G01 Z-0.125000 F1000.0(Penetrate)
G01 X79.858890 Y56.666668 Z-0.125000 F4000.000000
G00 Z5.000000

(End cutting path id: path3365)


(Start cutting path id: path3363)
(Change tool to Default tool)

G00 Z5.000000
G00 X69.858890 Y96.666667

G01 Z-0.125000 F1000.0(Penetrate)
G01 X69.858890 Y56.666668 Z-0.125000 F4000.000000
G00 Z5.000000

(End cutting path id: path3363)


(Start cutting path id: path3361)
(Change tool to Default tool)

G00 Z5.000000
G00 X59.858891 Y96.666667

G01 Z-0.125000 F1000.0(Penetrate)
G01 X59.858891 Y56.666668 Z-0.125000 F4000.000000
G00 Z5.000000

(End cutting path id: path3361)


(Start cutting path id: path3357)
(Change tool to Default tool)

G00 Z5.000000
G00 X49.858891 Y96.666667

G01 Z-0.125000 F1000.0(Penetrate)
G01 X49.858891 Y56.666668 Z-0.125000 F4000.000000
G00 Z5.000000

(End cutting path id: path3357)


(Start cutting path id: path3355)
(Change tool to Default tool)

G00 Z5.000000
G00 X10.000000 Y56.807777

G01 Z-0.125000 F1000.0(Penetrate)
G01 X50.000002 Y56.807777 Z-0.125000 F4000.000000
G00 Z5.000000

(End cutting path id: path3355)


(Start cutting path id: path3353)
(Change tool to Default tool)

G00 Z5.000000
G00 X10.000000 Y46.807777

G01 Z-0.125000 F1000.0(Penetrate)
G01 X50.000002 Y46.807777 Z-0.125000 F4000.000000
G00 Z5.000000

(End cutting path id: path3353)


(Start cutting path id: path3351)
(Change tool to Default tool)

G00 Z5.000000
G00 X10.000000 Y36.807777

G01 Z-0.125000 F1000.0(Penetrate)
G01 X50.000002 Y36.807777 Z-0.125000 F4000.000000
G00 Z5.000000

(End cutting path id: path3351)


(Start cutting path id: path3349)
(Change tool to Default tool)

G00 Z5.000000
G00 X10.000000 Y26.807788

G01 Z-0.125000 F1000.0(Penetrate)
G01 X50.000002 Y26.807788 Z-0.125000 F4000.000000
G00 Z5.000000

(End cutting path id: path3349)


(Start cutting path id: path3347)
(Change tool to Default tool)

G00 Z5.000000
G00 X10.000000 Y16.807789

G01 Z-0.125000 F1000.0(Penetrate)
G01 X50.000002 Y16.807789 Z-0.125000 F4000.000000
G00 Z5.000000

(End cutting path id: path3347)

G28  ; Park
