$$   ; View Grbl settings
?    ; Current status
G90  ; Absolute distance mode
G21  ; All units in mm

(Start cutting path id: path3360)
(Change tool to Default tool)

G00 Z5.000000
G00 X49.999999 Y96.553694

G01 Z-0.125000 F1000.0(Penetrate)
G01 X62.963583 Y70.286605 Z-0.125000 F4000.000000
G01 X91.951040 Y66.074478 Z-0.125000
G01 X70.975520 Y45.628398 Z-0.125000
G01 X75.927165 Y16.758061 Z-0.125000
G01 X49.999996 Y30.388790 Z-0.125000
G01 X24.072827 Y16.758061 Z-0.125000
G01 X29.024476 Y45.628398 Z-0.125000
G01 X8.048957 Y66.074481 Z-0.125000
G01 X37.036412 Y70.286605 Z-0.125000
G01 X49.999999 Y96.553694 Z-0.125000
G00 Z5.000000

(End cutting path id: path3360)

G28  ; Park
