$$   ; View Grbl settings
?    ; Current status
G90  ; Absolute distance mode
G21  ; All units in mm

G00 Z5.000000
G00 X36.678755 Y74.320845

G01 Z-0.125000 F1000.0
G01 X30.052992 Y66.939698 Z-0.125000 F8000.00000
G01 X30.052992 Y59.006544 Z-0.125000
G01 X50.000002 Y39.070880 Z-0.125000
G01 X69.947009 Y59.006544 Z-0.125000
G01 X69.947009 Y66.939698 Z-0.125000
G01 X63.321244 Y74.320845 Z-0.125000
G01 X55.245974 Y74.320845 Z-0.125000
G01 X50.000002 Y67.559407 Z-0.125000
G01 X44.753781 Y74.320845 Z-0.125000
G01 X36.678755 Y74.320845 Z-0.125000

G01 X30.052992 Y66.939698 Z-0.125000 F8000.00000
G01 X30.052992 Y59.006544 Z-0.125000
G01 X50.000002 Y39.070880 Z-0.125000
G01 X69.947009 Y59.006544 Z-0.125000
G01 X69.947009 Y66.939698 Z-0.125000
G01 X63.321244 Y74.320845 Z-0.125000
G01 X55.245974 Y74.320845 Z-0.125000
G01 X50.000002 Y67.559407 Z-0.125000
G01 X44.753781 Y74.320845 Z-0.125000
G01 X36.678755 Y74.320845 Z-0.125000

G01 X30.052992 Y66.939698 Z-0.125000 F8000.00000
G01 X30.052992 Y59.006544 Z-0.125000
G01 X50.000002 Y39.070880 Z-0.125000
G01 X69.947009 Y59.006544 Z-0.125000
G01 X69.947009 Y66.939698 Z-0.125000
G01 X63.321244 Y74.320845 Z-0.125000
G01 X55.245974 Y74.320845 Z-0.125000
G01 X50.000002 Y67.559407 Z-0.125000
G01 X44.753781 Y74.320845 Z-0.125000
G01 X36.678755 Y74.320845 Z-0.125000

G01 X30.052992 Y66.939698 Z-0.125000 F8000.00000
G01 X30.052992 Y59.006544 Z-0.125000
G01 X50.000002 Y39.070880 Z-0.125000
G01 X69.947009 Y59.006544 Z-0.125000
G01 X69.947009 Y66.939698 Z-0.125000
G01 X63.321244 Y74.320845 Z-0.125000
G01 X55.245974 Y74.320845 Z-0.125000
G01 X50.000002 Y67.559407 Z-0.125000
G01 X44.753781 Y74.320845 Z-0.125000
G01 X36.678755 Y74.320845 Z-0.125000

G01 X30.052992 Y66.939698 Z-0.125000 F8000.00000
G01 X30.052992 Y59.006544 Z-0.125000
G01 X50.000002 Y39.070880 Z-0.125000
G01 X69.947009 Y59.006544 Z-0.125000
G01 X69.947009 Y66.939698 Z-0.125000
G01 X63.321244 Y74.320845 Z-0.125000
G01 X55.245974 Y74.320845 Z-0.125000
G01 X50.000002 Y67.559407 Z-0.125000
G01 X44.753781 Y74.320845 Z-0.125000
G01 X36.678755 Y74.320845 Z-0.125000

G01 X30.052992 Y66.939698 Z-0.125000 F8000.00000
G01 X30.052992 Y59.006544 Z-0.125000
G01 X50.000002 Y39.070880 Z-0.125000
G01 X69.947009 Y59.006544 Z-0.125000
G01 X69.947009 Y66.939698 Z-0.125000
G01 X63.321244 Y74.320845 Z-0.125000
G01 X55.245974 Y74.320845 Z-0.125000
G01 X50.000002 Y67.559407 Z-0.125000
G01 X44.753781 Y74.320845 Z-0.125000
G01 X36.678755 Y74.320845 Z-0.125000

G01 X30.052992 Y66.939698 Z-0.125000 F8000.00000
G01 X30.052992 Y59.006544 Z-0.125000
G01 X50.000002 Y39.070880 Z-0.125000
G01 X69.947009 Y59.006544 Z-0.125000
G01 X69.947009 Y66.939698 Z-0.125000
G01 X63.321244 Y74.320845 Z-0.125000
G01 X55.245974 Y74.320845 Z-0.125000
G01 X50.000002 Y67.559407 Z-0.125000
G01 X44.753781 Y74.320845 Z-0.125000
G01 X36.678755 Y74.320845 Z-0.125000

G01 X30.052992 Y66.939698 Z-0.125000 F8000.00000
G01 X30.052992 Y59.006544 Z-0.125000
G01 X50.000002 Y39.070880 Z-0.125000
G01 X69.947009 Y59.006544 Z-0.125000
G01 X69.947009 Y66.939698 Z-0.125000
G01 X63.321244 Y74.320845 Z-0.125000
G01 X55.245974 Y74.320845 Z-0.125000
G01 X50.000002 Y67.559407 Z-0.125000
G01 X44.753781 Y74.320845 Z-0.125000
G01 X36.678755 Y74.320845 Z-0.125000

G01 X30.052992 Y66.939698 Z-0.125000 F8000.00000
G01 X30.052992 Y59.006544 Z-0.125000
G01 X50.000002 Y39.070880 Z-0.125000
G01 X69.947009 Y59.006544 Z-0.125000
G01 X69.947009 Y66.939698 Z-0.125000
G01 X63.321244 Y74.320845 Z-0.125000
G01 X55.245974 Y74.320845 Z-0.125000
G01 X50.000002 Y67.559407 Z-0.125000
G01 X44.753781 Y74.320845 Z-0.125000
G01 X36.678755 Y74.320845 Z-0.125000

G01 X30.052992 Y66.939698 Z-0.125000 F8000.00000
G01 X30.052992 Y59.006544 Z-0.125000
G01 X50.000002 Y39.070880 Z-0.125000
G01 X69.947009 Y59.006544 Z-0.125000
G01 X69.947009 Y66.939698 Z-0.125000
G01 X63.321244 Y74.320845 Z-0.125000
G01 X55.245974 Y74.320845 Z-0.125000
G01 X50.000002 Y67.559407 Z-0.125000
G01 X44.753781 Y74.320845 Z-0.125000
G01 X36.678755 Y74.320845 Z-0.125000

G00 Z5.000000

G28  ; Park
