$$  ; View Grbl settings
?   ; Current status
$G  ; View gcode parser state
G91 ; Relative distance mode

G0 X-400
G0 Y200
G0 X400
G0 Y-200

G0 X-400
G0 Y200
G0 X400
G0 Y-200

G0 X-400
G0 Y200
G0 X400
G0 Y-200

G0 X-400
G0 Y200
G0 X400
G0 Y-200

G0 X-400
G0 Y200
G0 X400
G0 Y-200

G0 X-400
G0 Y200
G0 X400
G0 Y-200

G0 X-400
G0 Y200
G0 X400
G0 Y-200

G0 X-400
G0 Y200
G0 X400
G0 Y-200

G0 X-400
G0 Y200
G0 X400
G0 Y-200

G0 X-400
G0 Y200
G0 X400
G0 Y-200

G0 X-400
G0 Y200
G0 X400
G0 Y-200

G0 X-400
G0 Y200
G0 X400
G0 Y-200

G0 X-400
G0 Y200
G0 X400
G0 Y-200

G0 X-400
G0 Y200
G0 X400
G0 Y-200

G0 X-400
G0 Y200
G0 X400
G0 Y-200

G0 X-400
G0 Y200
G0 X400
G0 Y-200

G0 X-400
G0 Y200
G0 X400
G0 Y-200

G0 X-400
G0 Y200
G0 X400
G0 Y-200

G0 X-400
G0 Y200
G0 X400
G0 Y-200

G0 X-400
G0 Y200
G0 X400
G0 Y-200

G0 X-400
G0 Y200
G0 X400
G0 Y-200

G0 X-400
G0 Y200
G0 X400
G0 Y-200

G0 X-400
G0 Y200
G0 X400
G0 Y-200

G0 X-400
G0 Y200
G0 X400
G0 Y-200

G0 X-400
G0 Y200
G0 X400
G0 Y-200

G0 X-400
G0 Y200
G0 X400
G0 Y-200

G0 X-400
G0 Y200
G0 X400
G0 Y-200

G0 X-400
G0 Y200
G0 X400
G0 Y-200

G0 X-400
G0 Y200
G0 X400
G0 Y-200

G0 X-400
G0 Y200
G0 X400
G0 Y-200

G0 X-400
G0 Y200
G0 X400
G0 Y-200

G0 X-400
G0 Y200
G0 X400
G0 Y-200

G0 X-400
G0 Y200
G0 X400
G0 Y-200

G0 X-400
G0 Y200
G0 X400
G0 Y-200

G0 X-400
G0 Y200
G0 X400
G0 Y-200

G0 X-400
G0 Y200
G0 X400
G0 Y-200

G0 X-400
G0 Y200
G0 X400
G0 Y-200

G0 X-400
G0 Y200
G0 X400
G0 Y-200

G0 X-400
G0 Y200
G0 X400
G0 Y-200

G0 X-400
G0 Y200
G0 X400
G0 Y-200

G0 X-400
G0 Y200
G0 X400
G0 Y-200

G0 X-400
G0 Y200
G0 X400
G0 Y-200

G0 X-400
G0 Y200
G0 X400
G0 Y-200

G0 X-400
G0 Y200
G0 X400
G0 Y-200

G0 X-400
G0 Y200
G0 X400
G0 Y-200

G0 X-400
G0 Y200
G0 X400
G0 Y-200

G0 X-400
G0 Y200
G0 X400
G0 Y-200

G0 X-400
G0 Y200
G0 X400
G0 Y-200

G0 X-400
G0 Y200
G0 X400
G0 Y-200

G0 X-400
G0 Y200
G0 X400
G0 Y-200

G0 X-400
G0 Y200
G0 X400
G0 Y-200

G0 X-400
G0 Y200
G0 X400
G0 Y-200

G0 X-400
G0 Y200
G0 X400
G0 Y-200

G0 X-400
G0 Y200
G0 X400
G0 Y-200

G0 X-400
G0 Y200
G0 X400
G0 Y-200

G0 X-400
G0 Y200
G0 X400
G0 Y-200

G0 X-400
G0 Y200
G0 X400
G0 Y-200

G0 X-400
G0 Y200
G0 X400
G0 Y-200

G0 X-400
G0 Y200
G0 X400
G0 Y-200

G0 X-400
G0 Y200
G0 X400
G0 Y-200

G0 X-400
G0 Y200
G0 X400
G0 Y-200

G0 X-400
G0 Y200
G0 X400
G0 Y-200

G0 X-400
G0 Y200
G0 X400
G0 Y-200

G0 X-400
G0 Y200
G0 X400
G0 Y-200

G0 X-400
G0 Y200
G0 X400
G0 Y-200

G0 X-400
G0 Y200
G0 X400
G0 Y-200

G0 X-400
G0 Y200
G0 X400
G0 Y-200

G0 X-400
G0 Y200
G0 X400
G0 Y-200

G0 X-400
G0 Y200
G0 X400
G0 Y-200

G0 X-400
G0 Y200
G0 X400
G0 Y-200

G0 X-400
G0 Y200
G0 X400
G0 Y-200

G0 X-400
G0 Y200
G0 X400
G0 Y-200

G0 X-400
G0 Y200
G0 X400
G0 Y-200

G0 X-400
G0 Y200
G0 X400
G0 Y-200

G0 X-400
G0 Y200
G0 X400
G0 Y-200

G0 X-400
G0 Y200
G0 X400
G0 Y-200

G0 X-400
G0 Y200
G0 X400
G0 Y-200

G0 X-400
G0 Y200
G0 X400
G0 Y-200

G0 X-400
G0 Y200
G0 X400
G0 Y-200

G0 X-400
G0 Y200
G0 X400
G0 Y-200

G0 X-400
G0 Y200
G0 X400
G0 Y-200

G0 X-400
G0 Y200
G0 X400
G0 Y-200

G0 X-400
G0 Y200
G0 X400
G0 Y-200

G0 X-400
G0 Y200
G0 X400
G0 Y-200

G0 X-400
G0 Y200
G0 X400
G0 Y-200

G0 X-400
G0 Y200
G0 X400
G0 Y-200

G0 X-400
G0 Y200
G0 X400
G0 Y-200

G0 X-400
G0 Y200
G0 X400
G0 Y-200

G0 X-400
G0 Y200
G0 X400
G0 Y-200

G0 X-400
G0 Y200
G0 X400
G0 Y-200

G0 X-400
G0 Y200
G0 X400
G0 Y-200

G0 X-400
G0 Y200
G0 X400
G0 Y-200

G0 X-400
G0 Y200
G0 X400
G0 Y-200

G0 X-400
G0 Y200
G0 X400
G0 Y-200

G0 X-400
G0 Y200
G0 X400
G0 Y-200

G0 X-400
G0 Y200
G0 X400
G0 Y-200

G0 X-400
G0 Y200
G0 X400
G0 Y-200

G0 X-400
G0 Y200
G0 X400
G0 Y-200

G0 X-400
G0 Y200
G0 X400
G0 Y-200

G0 X-400
G0 Y200
G0 X400
G0 Y-200

G0 X-400
G0 Y200
G0 X400
G0 Y-200

G0 X-400
G0 Y200
G0 X400
G0 Y-200

G0 X-400
G0 Y200
G0 X400
G0 Y-200

G0 X-400
G0 Y200
G0 X400
G0 Y-200

G0 X-400
G0 Y200
G0 X400
G0 Y-200

G0 X-400
G0 Y200
G0 X400
G0 Y-200

G0 X-400
G0 Y200
G0 X400
G0 Y-200

G0 X-400
G0 Y200
G0 X400
G0 Y-200

G0 X-400
G0 Y200
G0 X400
G0 Y-200

G0 X-400
G0 Y200
G0 X400
G0 Y-200

G0 X-400
G0 Y200
G0 X400
G0 Y-200

G0 X-400
G0 Y200
G0 X400
G0 Y-200

G0 X-400
G0 Y200
G0 X400
G0 Y-200

G0 X-400
G0 Y200
G0 X400
G0 Y-200

G0 X-400
G0 Y200
G0 X400
G0 Y-200

G0 X-400
G0 Y200
G0 X400
G0 Y-200

G0 X-400
G0 Y200
G0 X400
G0 Y-200

G0 X-400
G0 Y200
G0 X400
G0 Y-200

G0 X-400
G0 Y200
G0 X400
G0 Y-200

G0 X-400
G0 Y200
G0 X400
G0 Y-200

G0 X-400
G0 Y200
G0 X400
G0 Y-200

G0 X-400
G0 Y200
G0 X400
G0 Y-200

G0 X-400
G0 Y200
G0 X400
G0 Y-200

G0 X-400
G0 Y200
G0 X400
G0 Y-200

G0 X-400
G0 Y200
G0 X400
G0 Y-200

G0 X-400
G0 Y200
G0 X400
G0 Y-200

G0 X-400
G0 Y200
G0 X400
G0 Y-200

G0 X-400
G0 Y200
G0 X400
G0 Y-200

G0 X-400
G0 Y200
G0 X400
G0 Y-200

G0 X-400
G0 Y200
G0 X400
G0 Y-200

G0 X-400
G0 Y200
G0 X400
G0 Y-200

G0 X-400
G0 Y200
G0 X400
G0 Y-200

G0 X-400
G0 Y200
G0 X400
G0 Y-200

G0 X-400
G0 Y200
G0 X400
G0 Y-200

G0 X-400
G0 Y200
G0 X400
G0 Y-200

G0 X-400
G0 Y200
G0 X400
G0 Y-200

G0 X-400
G0 Y200
G0 X400
G0 Y-200

G0 X-400
G0 Y200
G0 X400
G0 Y-200

G0 X-400
G0 Y200
G0 X400
G0 Y-200

G0 X-400
G0 Y200
G0 X400
G0 Y-200

G0 X-400
G0 Y200
G0 X400
G0 Y-200

G0 X-400
G0 Y200
G0 X400
G0 Y-200

G0 X-400
G0 Y200
G0 X400
G0 Y-200

G0 X-400
G0 Y200
G0 X400
G0 Y-200

G0 X-400
G0 Y200
G0 X400
G0 Y-200

G0 X-400
G0 Y200
G0 X400
G0 Y-200

G0 X-400
G0 Y200
G0 X400
G0 Y-200

G0 X-400
G0 Y200
G0 X400
G0 Y-200

G0 X-400
G0 Y200
G0 X400
G0 Y-200

G0 X-400
G0 Y200
G0 X400
G0 Y-200

G0 X-400
G0 Y200
G0 X400
G0 Y-200

G0 X-400
G0 Y200
G0 X400
G0 Y-200

G0 X-400
G0 Y200
G0 X400
G0 Y-200

G0 X-400
G0 Y200
G0 X400
G0 Y-200

G0 X-400
G0 Y200
G0 X400
G0 Y-200

G0 X-400
G0 Y200
G0 X400
G0 Y-200

G0 X-400
G0 Y200
G0 X400
G0 Y-200

G0 X-400
G0 Y200
G0 X400
G0 Y-200

G0 X-400
G0 Y200
G0 X400
G0 Y-200

G0 X-400
G0 Y200
G0 X400
G0 Y-200

G0 X-400
G0 Y200
G0 X400
G0 Y-200

G0 X-400
G0 Y200
G0 X400
G0 Y-200

G0 X-400
G0 Y200
G0 X400
G0 Y-200

G0 X-400
G0 Y200
G0 X400
G0 Y-200

G0 X-400
G0 Y200
G0 X400
G0 Y-200

G0 X-400
G0 Y200
G0 X400
G0 Y-200

G0 X-400
G0 Y200
G0 X400
G0 Y-200

G0 X-400
G0 Y200
G0 X400
G0 Y-200

G0 X-400
G0 Y200
G0 X400
G0 Y-200

G0 X-400
G0 Y200
G0 X400
G0 Y-200

G0 X-400
G0 Y200
G0 X400
G0 Y-200

G0 X-400
G0 Y200
G0 X400
G0 Y-200

G0 X-400
G0 Y200
G0 X400
G0 Y-200

G0 X-400
G0 Y200
G0 X400
G0 Y-200

G0 X-400
G0 Y200
G0 X400
G0 Y-200

G0 X-400
G0 Y200
G0 X400
G0 Y-200

G0 X-400
G0 Y200
G0 X400
G0 Y-200

G0 X-400
G0 Y200
G0 X400
G0 Y-200

G0 X-400
G0 Y200
G0 X400
G0 Y-200

G0 X-400
G0 Y200
G0 X400
G0 Y-200

G0 X-400
G0 Y200
G0 X400
G0 Y-200

G0 X-400
G0 Y200
G0 X400
G0 Y-200

G0 X-400
G0 Y200
G0 X400
G0 Y-200

G0 X-400
G0 Y200
G0 X400
G0 Y-200

G0 X-400
G0 Y200
G0 X400
G0 Y-200

G0 X-400
G0 Y200
G0 X400
G0 Y-200

G0 X-400
G0 Y200
G0 X400
G0 Y-200

G0 X-400
G0 Y200
G0 X400
G0 Y-200

G0 X-400
G0 Y200
G0 X400
G0 Y-200

G0 X-400
G0 Y200
G0 X400
G0 Y-200

G28  ; Park


